img/star_white.svg

<svg width="20" height="20" viewBox="0 0 20 20" fill="none" xmlns="http://www.w3.org/2000/svg">
<path d="M14.9322 11.9334C14.7164 12.1425 14.6172 12.445 14.6664 12.7417L15.4072 16.8417C15.4697 17.1892 15.3231 17.5409 15.0322 17.7417C14.7472 17.95 14.3681 17.975 14.0572 17.8084L10.3664 15.8834C10.2381 15.815 10.0956 15.7784 9.94973 15.7742H9.7239C9.64557 15.7859 9.5689 15.8109 9.4989 15.8492L5.80723 17.7834C5.62473 17.875 5.41807 17.9075 5.21557 17.875C4.72223 17.7817 4.39307 17.3117 4.4739 16.8159L5.21557 12.7159C5.26473 12.4167 5.16557 12.1125 4.94973 11.9L1.94057 8.98337C1.6889 8.73921 1.6014 8.37254 1.7164 8.04171C1.82807 7.71171 2.11307 7.47087 2.45723 7.41671L6.5989 6.81587C6.9139 6.78337 7.19057 6.59171 7.33223 6.30837L9.15723 2.56671C9.20057 2.48337 9.2564 2.40671 9.3239 2.34171L9.3989 2.28337C9.43807 2.24004 9.48307 2.20421 9.53307 2.17504L9.6239 2.14171L9.76557 2.08337H10.1164C10.4297 2.11587 10.7056 2.30337 10.8497 2.58337L12.6989 6.30837C12.8322 6.58087 13.0914 6.77004 13.3906 6.81587L17.5322 7.41671C17.8822 7.46671 18.1747 7.70837 18.2906 8.04171C18.3997 8.37587 18.3056 8.74254 18.0489 8.98337L14.9322 11.9334Z" fill="white"/>
</svg>

<svg width="20" height="20" viewBox="0 0 20 20" fill="none" xmlns="http://www.w3.org/2000/svg"><path d="M14.932 11.933a.917.917 0 0 0-.266.809l.741 4.1a.9.9 0 0 1-.375.9.918.918 0 0 1-.975.066l-3.69-1.925a.942.942 0 0 0-.417-.109h-.226a.678.678 0 0 0-.225.075l-3.692 1.934a.974.974 0 0 1-.591.092.926.926 0 0 1-.742-1.06l.742-4.1a.933.933 0 0 0-.266-.815L1.94 8.983a.9.9 0 0 1-.224-.941.936.936 0 0 1 .741-.625L6.6 6.816a.927.927 0 0 0 .733-.508l1.825-3.741c.044-.084.1-.16.167-.225l.075-.059a.56.56 0 0 1 .134-.108l.09-.033.143-.059h.35c.314.033.59.22.734.5L12.7 6.308a.926.926 0 0 0 .692.508l4.141.6c.35.05.643.292.759.626.109.334.015.7-.242.941l-3.117 2.95z" fill="#fff"/></svg>
